X: 358
T: The North Sea Fleet
%R: strathspey
Z: 2014 John Chambers <jc:trillian.mit.edu>
B: Preston "Twenty four Country Dances for the Year 1799" p.159 #2
F: http://www.vwml.org/browse/browse-collections-dance-tune-books/browse-prestons1799# 2014-8-10
N: The 2nd strain has initial repeat but no final repeat; not fixed.
M: C|
L: 1/16
K: F
A2 |\
F3c dcBA cF3c3A | F3c dcBA B2G2G2A2 |\
F3c dcBA cF3c3A | f3gf2e2 f2F2 F2 :|
|: d2 |\
cf3 gagf d2f2c2f2 | d3ga2f2 g2d2d2f2 |\
cf3 gagf d2f2c2f2 | Bcd2 c2B A2F2F2d2 |
cf3 gagf d2f2c2f2 | dg3a3f e2g2g2b2 |\
a2f2d2g2 fd3c3A | BG3c2B2 A2F2 F2 |]
% - - - - - - - - - - - - - - - - - - - - - - - - -
%%begintext align
%% 1st & 2d Ladies take hands & lead thro'
%% between the 1st & 2d Gent.n .| the 1st and 2d
%% Gent.n lead tho' between their Part.rs :| cross
%% over one Cu: & turn :|. Right & Left at top :|:
%%endtext
% - - - - - - - - - - - - - - - - - - - - - - - - -

%%sep 1 1 500
%%sep 1 1 500
